static/img/svg/newsletter.svg

<svg xmlns="http://www.w3.org/2000/svg" width="24" height="24" viewBox="0 0 24 24"><path d="M12 6h4v2h-4zM8 6h2v2H8zM9 10h6v2H9z"/><path d="M21.707 8.293L20 6.586V3a1 1 0 0 0-1-1H5a1 1 0 0 0-1 1v3.586L2.293 8.293l.006.006A.986.986 0 0 0 2 9v12a1 1 0 0 0 1 1h18a1 1 0 0 0 1-1V9a.986.986 0 0 0-.299-.701l.006-.006zM18 4v6.329l-6 5.333-6-5.333V4h12zm2 16H4v-8.773l7.336 6.521a.996.996 0 0 0 1.328 0L20 11.227V20z"/></svg>

<svg xmlns="http://www.w3.org/2000/svg" width="24" height="24" viewBox="0 0 24 24"><path d="M12 6H16V8H12zM8 6H10V8H8zM9 10H15V12H9z"/><path d="M21.707,8.293L20,6.586V3c0-0.553-0.447-1-1-1H5C4.447,2,4,2.447,4,3v3.586L2.293,8.293l0.006,0.006 C2.114,8.482,2,8.73,2,9v12c0,0.553,0.447,1,1,1h18c0.553,0,1-0.447,1-1V9c0-0.27-0.114-0.518-0.299-0.701L21.707,8.293z M6,4h12 v6.329l-6,5.333l-6-5.333V4z M20,20H4v-8.773l7.336,6.521c0.379,0.338,0.949,0.338,1.328,0L20,11.227V20z"/></svg>
